X:1
T:Above the Bright Blue
T:Above the Bright Blue
T:Charles Edward Pollock
T:Charles Edward Pollock, 1903
T:Public Domain Courtesy of the Cyber Hymnal™
T:Public Domain Courtesy of the Cyber Hymnal™
C:Charles Edward Pollock
Z:Public Domain
Z:Courtesy of the Cyber Hymnal™
%%score 1 ( 2 3 )
L:1/8
Q:1/4=85
M:6/8
K:A
V:1 treble 
V:2 bass 
V:3 bass 
V:1
 [A,C]/[B,D]/ | [CE]>[^B,^D][CE] [Ec]2 [=D=B] | [DB] [CA]3 z [EA]/[EA]/ | %3
w: 1.~There’s a|beau- ti- ful place called|Hea- ven, It is|
w: 2.~Th- is|land of sweet rest a-|waits us; So- me|
w: 3.~When He|left His be- loved dis-|ci- ples, H- e|
w: 4.~W- e|know not when He shall|call us, Whe- ther|
 [FA]>[^EG][FA] [FB][FA][DF] | [CE]3- [CE]2 [CE]/[CE]/ | [CE]>[CA][CA] [EA][EB][Ec] | %6
w: hid- den a- bove the bright|blue; * Where the|good, who from earth ties are|
w: day it will break on our|view; * ’T- is|prom- ised by Christ the Re-|
w: said, as He bade them a-|dieu, * “I ~|go to pre- pare you a|
w: soon, the glad sum- mons shall|be; * But we|know, when we pass o’er the|
 [Fd] [Fd]3 z [Fd]/[Fd]/ | [Ec]>[DB][CA] [DG][CA][DB] | [CA]3- [CA]2 ||"^Refrain" [Ec] | %10
w: riv- en, Live and|love an e- ter- ni- ty|thro’. *||
w: deem- er, To His|fol- low- ers faith- ful and|true. *|A-|
w: man- sion, A- nd|soon I’ll be send- ing for|you.” *||
w: ri- ver, Th- e|glo- ry of Je- sus we’ll|see. *||
 [Ec]>[^D^B][Ec] [CA]2 [EA] | [DB]>[DA][DF] [CE]3 | [CA]>[CA][CA] [CA][CG][CA] | %13
w: |||
w: bove the bright blue, the|beau- ti- ful blue,|Je- sus is wait- ing for|
w: |||
w: |||
 [^DB][DB][Dc] [EB]3 | [Ec]>[^D^B][Ec] [CA]2 [EA] | [FB][FA][DF] [CE]3 | %16
w: |||
w: me and for you;|Hea- ven is there, not|far from our sight,|
w: |||
w: |||
 [DF][FA][Fd] [Ec]<[Ec][DB] | [CA]3- [CA]2 |] %18
w: ||
w: Beau- ti- ful ci- ty of|light. *|
w: ||
w: ||
V:2
 [A,,E,]/[A,,E,]/ | [A,,A,]>[A,,A,][A,,A,] [E,A,]2 [E,G,] | [A,,A,] [A,,A,]3 z [C,A,]/[C,A,]/ | %3
 [D,A,]>[D,A,][D,A,] [D,A,][D,A,][D,A,] | [A,,A,]3- [A,,A,]2 [A,,A,]/[A,,A,]/ | %5
 [A,,A,]>[A,,A,][A,,A,] [C,A,][E,G,]A, | [D,A,] [D,A,]3 z [D,A,]/[D,A,]/ | %7
 [E,A,]>[E,A,][E,A,] [E,B,][E,A,][E,G,] | [A,,A,]3- [A,,A,]2 || [A,,A,] | %10
 [A,,A,]>[A,,A,][A,,A,] [A,,E,]2 [C,E,] | [D,F,]>[D,F,][D,A,] [A,,A,]3 | %12
 [F,A,]>[F,A,][F,A,] [F,A,][F,B,][F,A,] | [B,,F,][B,,F,][B,,A,] [E,G,]3 | %14
 [A,,A,]>[A,,A,][A,,A,] [A,,E,]2 [C,A,] | [D,A,][D,A,][D,A,] [A,,A,]3 | %16
 [D,A,][D,A,][D,A,] [E,A,]<[E,A,][E,G,] | [A,,A,]3- [A,,A,]2 |] %18
V:3
 x | x6 | x6 | x6 | x6 | x5 A, | x6 | x6 | x5 || x | x6 | x6 | x6 | x6 | x6 | x6 | x6 | x5 |] %18

